brandFactory_export/3.Masa/Mail correo_3Masa.svg

<?xml version="1.0" encoding="UTF-8"?>
<svg width="24px" height="24px" viewBox="0 0 24 24" version="1.1" xmlns="http://www.w3.org/2000/svg" xmlns:xlink="http://www.w3.org/1999/xlink">
    <title>3.Masa/Mail correo_3Masa</title>
    <g id="Symbols" stroke="none" stroke-width="1" fill="none" fill-rule="evenodd">
        <g id="3.Masa/Mail-correo_3Masa" fill="#5CB615" fill-rule="nonzero">
            <path d="M23.5865546,18.1815126 C23.6168067,18.4403361 23.6638655,19.2470588 23.1159664,19.9058824 C22.8201681,20.2621849 22.2420168,20.6890756 21.1764706,20.7092437 C20.5546218,20.7193277 18.2184874,20.7226891 15.3815126,20.7226891 C9.90252101,20.7226891 2.55462185,20.7092437 2.0907563,20.7092437 C2.01680672,20.712605 1.29747899,20.7058824 0.709243697,20.1344538 C0.25210084,19.687395 0.0168067227,19.0487395 0.0168067227,18.2319328 L0.0168067227,6.87058824 L9.64705882,12.9411765 C9.69747899,12.9781513 10.5109244,13.5529412 11.6369748,13.5529412 C12.2016807,13.5529412 12.8470588,13.4084034 13.512605,12.9714286 L23.6033613,6.82352941 L23.5865546,18.1815126 Z M12.7394958,11.7613445 C11.5798319,12.5176471 10.5411765,11.8084034 10.4638655,11.7546218 L0.221848739,5.29747899 C0.315966387,5.05546218 0.450420168,4.81008403 0.65210084,4.59831933 C1.01512605,4.21512605 1.51260504,4.01344538 2.09411765,4.01344538 L21.5596639,4.01680672 C22,4.02016807 22.9277311,4.25882353 23.3647059,5.2907563 L12.7394958,11.7613445 Z" id="Mail-correo_3Masa"></path>
        </g>
    </g>
</svg>

<svg width="24" height="24" viewBox="0 0 24 24" xmlns="http://www.w3.org/2000/svg"><path d="M23.587 18.182c.03.258.077 1.065-.471 1.724-.296.356-.874.783-1.94.803-.621.01-2.958.014-5.794.014-5.48 0-12.827-.014-13.291-.014a2.047 2.047 0 01-1.382-.575c-.457-.447-.692-1.085-.692-1.902V6.87l9.63 6.07c.05.037.864.612 1.99.612.565 0 1.21-.145 1.876-.582l10.09-6.147-.016 11.358zm-10.848-6.42c-1.16.756-2.198.046-2.275-.007L.222 5.297c.094-.242.228-.487.43-.699.363-.383.86-.585 1.442-.585l19.466.004c.44.003 1.368.242 1.805 1.274l-10.626 6.47z" fill="#5CB615" fill-rule="nonzero"/></svg>
